X:1
T:James Gibb editions
T:Christus factus est  - Asola
T:#
%%score [ 1 2 3 ]
L:1/8
Q:1/4=160
M:none
K:F
V:1 treble-8 nm="Tenor I" snm="T I"
V:2 treble-8 nm="Tenor II" snm="T II"
V:3 bass nm="Bass" snm="B"
V:1
"^Christus factus est""^Matteo Asola\n(1560-1609)" z16 | c8 (d8 | e8) (f6 e2 | %3
w: |Chri- stus|* fa\- *|
 d2 c2 d4 c2 d2 e2 c2 | d2 e2 f8) e4 | f12 d4 | (e6 dc d8) |[M:4/2][K:treble-8] e4 e4 f8- | %8
w: |* * * ctus|est pro|no\- * * *|bis o- be\-|
 f4 f4 e8 | d12 c4- | c4 c4 (c4 A4- | A4 G4) A8- | A8 c8- | c4 c4 c8 | d8 (f8- | f4 e2 d2 e8) | %16
w: * di- ens|us- que|* ad mor\- *|* * tem,|* mor\-|* tem au-|tem cru\-||
 f16 | e12 e4 | f4 f4 (d6 e2 | f8) e8 | e12 d4 | e4 f4 e8 | d8 d8 | e12 e4 | f4 f4 d8 | e16 | %26
w: cis|prop- ter|quod et De\- *|* us|e- xal-|ta- vit il-|lum et|de- dit|il- li no-|men|
 z8 c8- | c4 c4 d4 f4 | f4 e4 (f2 e2 x2 d2 | e4 f8) e4 | f4 c4 d4 f4- | f4 e4 f4 f4 | d16 | c16 |] %34
w: quod|* est su- per|om- ne no\- * *||men, quod est su\-|* per om- ne|no-|men!|
V:2
 F8 G8 | A8 (B2 A2 A2 GF | G8 A4 c4- | c4) =B4 c8 | z8 B8 | c8 d8 | c4 c8 =B4 | %7
w: Chri- stus|* fa\- * * * *||* ctus est|pro|no- bis|o- be- di-|
[M:4/2][K:treble-8] c16- | c16 | B8 (A8 | A4 G4) (F6 E2 | D8) E8 | F8 G8 | A12 G4 | %14
w: ens||us- que|* ad mor\- *|* tem,|mor- tem|au- tem|
 (B4 A2 G2 A4 B4 | A4 G2 F2 G8) | A16 | c12 c4 | A4 c4 (B6 c2 | d8) c4 c4- | c4 B4 c4 d4 | %21
w: cru\- * * * *||cis|prop- ter|quod et De\- *|* us e\-|* xal- ta- vit|
 (^c4 d8 c4) | d8 =B8 | c12 c4 | A4 c4 =B8 | c8 z8 | c12 B4 | A4 G4 F4 F4 | G8 F8 | c12 B4 | %30
w: il\- * *|lum et|de- dit|il- li no-|men|quod est|su- per o~m- ne|no- men,|quod est|
 A4 G4 F8 | G4 (A8 G2 F2 | B16) | A16 |] %34
w: su- per om-|ne no\- * *||men!|
V:3
 F,12 E,4 | F,8 D,8 | C,8 F,8 | (G,8 A,8) | B,8 G,8 | F,8 B,8 | A,8 G,8 |[M:4/2] C,8 F,8- | %8
w: Chri- stus|fa- ctus|est, Chri-|stus *|fa- ctus|est pro|no- bis|o- be\-|
 F,4 F,4 C,8 | G,8 F,8- | F,4 E,4 (D,6 C,2 | B,,8) A,,8 | D,8 C,8 | F,12 E,4 | (D,16 | C,16) | %16
w: * di- ens|us- que|* ad mor\- *|* tem,|mor- tem|au- tem|cru\-||
 F,16 | C,12 C,4 | F,4 F,4 G,8 | D,8 A,8- | A,4 G,4 A,4 B,4 | A,16 | D,8 G,8 | C,12 C,4 | %24
w: cis|prop- ter|quod et De-|us e\-|* xal- ta- vit|il-|lum et|de- dit|
 F,4 F,4 G,8 | C,8 C8- | C4 B,4 A,4 G,4 | F,4 E,4 D,8 | C,8 C8- | C4 B,4 A,4 G,4 | F,4 E,4 (D,8 | %31
w: il- li no-|men quod|* est su- per|om- ne no-|men, quod|* est su- per|om- ne no\-|
 C,8 D,6 C,2 | B,,16) | F,16 |] %34
w: ||men!|

